X:1
T:Deh potesse pur
T:Tomaso Cecchino
T:Source : Canti Spirituali a uno, due et tre voci + BC ---Venetia---G.Vincenti---1613. Editor : André Vierendeels (07/11/16).
T:Notes : Original clefs : C1, F4 " A due voci"
T:Deh potesse pur
T:©
T:©
T:©
T:©
C:Tomaso Cecchino
Z:©
%%score 1 2
L:1/8
Q:1/4=110
M:4/4
K:F
V:1 treble nm="Soprano" snm="S"
V:2 bass nm="MusicXML Part"
V:1
 B4 A2 G2- | GG B4 A2 | B2 d2 A2 B2 | ^F2 G2 A4 | A4 z2 d2 | A2 =B2 ^c2 d2- | d2 ^c2 d4 | %7
w: Deh po- tes-|* se pur i-|o, ca- ro pia-|ga- to mi-|o, ca-|ro pia- ga- to|_ mi- o,|
 z2 d2 A2 F2 | ^C2 D2 E4 | D2 D2 F2 G2 | A2 A2 d2 cB | A2 A2 B2 c2 | d2 _e2 d2 G2 | B2 AG A4 | G8 | %15
w: ca- ro pia-|ga- to mi-|o, a le tue|fiam- me, a le tue|fiam- me'in- ce- ne|rir, ar- den- do'ar-|den- * * *|do,|
 z4 d4 | A4 c4 | G4 B4 | A2 B4 A2 | B2 FG AB cB/A/ | GABc d4 | c2 d3 c B2 | _e4 d2 A2- | %23
w: in|di spar-|ger su|que- * *|sti par- * * * * * *||ger, spar- ger su|que- sti ca-|
 A2 d3 c B2- | BA G4 ^F2 | G8 | z8 | G8- | G4 c4- | c4 =B4 | c4 A4 | G8 | c4 A4- | A4 =B4 | %34
w: * rat- te- ri|_ fu- ne- *|sti,||il|_ me|_ sto-|ce- ner|mio|di pol-|* ve'in|
 c3 B AG A2 | G2 G2 ^F2 G2 | A2 GF E2 F2 | G4 F4 | z2 A2 c4 | z2 B2 cBAG | F2 B2 A2 G2 | ^F4 F4 | %42
w: ve- * * * *|ce, che non si|puo- * * * ne|le- ce,|pa- gar,|pa- gar _ _ _|_ do- no di|san- gue,|
 z2 d2 _edcB | A2 B2 A4 | A4 c2 =B2 | d6 ^FG | A4 G4- | G8 |] %48
w: in al- * * *|* tra sor-|te, che con|cam- bio di|mor- te!|_|
V:2
"^BC""^Bass" G,4 D,2 _E,2- | E,_E, G,2 F,4 | B,,4 D,4- | D,4 D,4 | z2 D,2 A,,2 B,,2 | %5
w: Deh po- tes-|* se pur i-|o, ca-|* ro,|ca- ro pia-|
"^B" ^F,,2 G,,2 A,,4 | A,,4 z2 D,2 | A,,2 =B,,2 ^C,2 D,2 | A,,8 | D,,4 D,2 C,B,, | %10
w: ga- to mi-|o, ca-|ro pia- ga- to|mi-|o, a le tue|
"^B" A,,2 A,,2 B,,2 C,2 | D,4 z2 A,,2 | B,,2 C,2 D,2 _E,2 | D,8 | G,,8 |"^B" z2 G,4 D,2- | %16
w: fiam- me'in- ce- ne|rir, in-|ce- ne- rir ar-|den-|do,|in- di|
 D,2 F,4 C,2- | C,2 _E,2 B,,C,D,E, | F,2 _E,D, E,2 F,2 | B,,4 F,,G,,A,,B,, | %20
w: _ spar- ger|_ su que- * * *||sti spar- * * *|
"^B" C,2 G,,A,, B,,C,D,E, | F,2 D,4 _E,2 | C,4 B,,2 D,2 | D,3 E, ^F,2 G,2 | _E,4 D,4 | %25
w: |* ger su|sue- sti ca-|rat- te- ri fu-|ne- sti|
"^B" z4 G,,4- | G,,4 C,4- | C,4 =B,,4 | C,4 A,,4 | G,,8 | A,,4 C,4- | C,4 =B,,4 | %32
w: il|_ me-|* sto|ce- ner|mio|di pol-|* ve'in|
"^B" A,,3 G,, F,,2 F,2- | F,E,D,C, D,4 | C,4 D,4 | =B,,2 C,2 D,2 C,B,, | A,,2 B,,2 C,4- | C,4 F,4 | %38
w: ve- * * *||ce, che|non fi puo- * *|* ne le-|* ce,|
"^B" F,,8 | G,,4 A,,4 | B,,4 C,4 | D,8 | =B,,4 C,2 C,2 |"^B" D,4 D,4 | F,4 E,2 G,2- | %45
w: par-|gar do-|no di|san-|gue'in al- tra|sor- te,|che con cam-|
 G,2 =B,,C, D,4- | D,4 G,,4- | G,,8 |] %48
w: * bio di mor-|* te!|_|

